Adwaita++/actions/22/cache.svg

<svg xmlns="http://www.w3.org/2000/svg" width="22" height="22" viewBox="0 0 22 22">
 <defs>
  <style id="current-color-scheme" type="text/css">
   .ColorScheme-Text { color:#444444; } .ColorScheme-Highlight { color:#4285f4; }
  </style>
 </defs>
 <path style="fill:currentColor" class="ColorScheme-Text" d="M 3 1.0292969 C 2 1.0292969 2 2.0292969 2 2.0292969 L 2 14.029297 C 2 14.029297 2 15.029297 3 15.029297 L 13 15.029297 C 13 15.029297 14 15.029297 14 14.029297 L 14 2.0292969 C 14 2.0292969 14 1.0292969 13 1.0292969 L 3 1.0292969 z M 8 3.0292969 C 10.2091 3.0292969 12 4.8201969 12 7.0292969 C 12 9.2383969 10.2091 11.029297 8 11.029297 L 4 11.029297 L 4 7.0292969 C 4 4.8201969 5.7909 3.0292969 8 3.0292969 z M 8 5.0292969 C 6.8954 5.0292969 6 5.9247269 6 7.0292969 C 6 8.1338669 6.89543 9.0292969 8 9.0292969 C 9.10457 9.0292969 10 8.1338669 10 7.0292969 C 10 5.9247269 9.10457 5.0292969 8 5.0292969 z" transform="translate(3 3)"/>
</svg>

<svg height="22" viewBox="0 0 22 22" width="22" xmlns="http://www.w3.org/2000/svg">
  <path d="m3 1.0292969c-1 0-1 1-1 1v12.0000001s0 1 1 1h10s1 0 1-1v-12.0000001s0-1-1-1zm5 2c2.2091 0 4 1.7909 4 4s-1.7909 4.0000001-4 4.0000001h-4v-4.0000001c0-2.2091 1.7909-4 4-4zm0 2c-1.1046 0-2 .89543-2 2s.89543 2 2 2 2-.89543 2-2-.89543-2-2-2z" fill="#444" transform="translate(3 3)"/>
</svg>
